!!!OTL: Bekehrt (3-98), S. 268
!!!id: P1071
**kern
*clefG2
*k[]
*G:
{8d
=1
4g
8d
=2
8.g
16a
8b
=3
4a
8b
=4
4a}
=5
{16b
16a
=6
4g
8d
=7
4g
8b
=8
[4.a
=9
8a]}
8r
=10
{8a
=11
4a
8dd
=12
4dd
8ee
=13
4dd
8cc
=14
4a}
=15
{8b
=16
4cc
8dd
=17
4b
8a
=18
[4.g
=19
8g]}
8r
==
*-
!!!minrhy: 16
!!!meters: 3/8 ]  ZZ[4
!!!cut: Bekehrt (3-98), S. 268
!!!reg: Lothringen
!!!trd: PINCK, Louis: Verklingende Weisen, Bd3, Metz 1933
!!!rhy1: X_  X__X_  X_.XX_  X__X_  X__
!!!rhy2: XX  X__X_  X__X_  X__.  ^_0_
!!!key: P1071  16  G 3/8 ]  ZZ[4
!!!mod: SECHSTONSKALA DUR ?]  AMBITUS[9
!!!kad: 2221
!!!akz: 1122_1122_2552_4311_
!!!fot: 'a__aw_b__c__
!!!for: 'a__b__c__bv_
!!!fok: '/__Vd_^__^d_
!! PHRAS[AUFTAKTIG]
!!!fkt: Trinklied
!! LOTH VKL
!! PR[40] 2K[7] 2G[23] 3K[0] 3G[0] 4A[0] 4Ü[0] 5A[3] 6K[0] 6G[0]
!! 7K[0] 7G[0] 8A[0] MEHR[0] SI[33] ABS[30] SR[30] SP[3]
!! ST[12] 2k[7] 2g[10] 3k[0] 3g[7] 4d[0] 4ü[0] 5d[3] 6k[0] 6g[0]
!! 7k[0] 7g[0] 8d[0] mehr[0] si[27] dm[+6] sr[17] sp[10]
!! 1F[16] 2F[56] 3F[13] 4F[0] LF[0] 2P[16] 3P[0] 4P[0] TRI[0] DF[4] AB[32]
!! TF[0] U3K[0] U3[0] U4[0] U4Ü[0] U5[10] U6K[0] U6[0] U7K[0] U7[6]
!! N1[19] N2K[0] N2[39] N3K[0] N3[16] N4[0] N4Ü[10] N5[0] N6K[0] N6[0]
!!!n7k: 0] N7[0] O1[0] O2K[0] O2[0] O3K[0] O3[0] HÖ[0
